resources/svg/cloud-upload.svg

<svg xmlns="http://www.w3.org/2000/svg" viewBox="0 0 24 24" fill="currentColor"><path fill="none" stroke="currentColor" stroke-width="2" d="M6,17 C3.23857625,17 1,14.7614237 1,12 C1,9.23857625 3.23857625,7 6,7 L12,7 M6,7 L6,6 C6,3 8,2 11,2 L13,2 C16,2 18,3 18,6 L18,7 C20.7614237,7 23,9.23857625 23,12 C23,14.7614237 20.7614237,17 18,17 M12,13 L12,22 M8,16.0000004 L11.9653427,11.9653429 L16,16.0000002"/></svg>

<svg viewBox="0 0 24 24"><path fill="none" stroke="currentColor" stroke-width="2" d="M6 17A5 5 0 0 1 6 7h6M6 7V6c0-3 2-4 5-4h2c3 0 5 1 5 4v1a5 5 0 0 1 0 10m-6-4v9m-4-6l3.965-4.035L16 16"/></svg>
